public/assets/icons/calendar.svg

<?xml version="1.0"?>
<svg xmlns="http://www.w3.org/2000/svg" xmlns:xlink="http://www.w3.org/1999/xlink" version="1.1" id="Capa_1" x="0px" y="0px" viewBox="0 0 512 512" style="enable-background:new 0 0 512 512;" xml:space="preserve" width="512px" height="512px" class=""><g><g>
	<g>
		<path d="M452,40h-24V0h-40v40H124V0H84v40H60C26.916,40,0,66.916,0,100v352c0,33.084,26.916,60,60,60h392    c33.084,0,60-26.916,60-60V100C512,66.916,485.084,40,452,40z M472,452c0,11.028-8.972,20-20,20H60c-11.028,0-20-8.972-20-20V188    h432V452z M472,148H40v-48c0-11.028,8.972-20,20-20h24v40h40V80h264v40h40V80h24c11.028,0,20,8.972,20,20V148z" data-original="#000000" class="active-path" data-old_color="#000000" fill="#00BD9D"/>
	</g>
</g><g>
	<g>
		<rect x="76" y="230" width="40" height="40" data-original="#000000" class="active-path" data-old_color="#000000" fill="#00BD9D"/>
	</g>
</g><g>
	<g>
		<rect x="156" y="230" width="40" height="40" data-original="#000000" class="active-path" data-old_color="#000000" fill="#00BD9D"/>
	</g>
</g><g>
	<g>
		<rect x="236" y="230" width="40" height="40" data-original="#000000" class="active-path" data-old_color="#000000" fill="#00BD9D"/>
	</g>
</g><g>
	<g>
		<rect x="316" y="230" width="40" height="40" data-original="#000000" class="active-path" data-old_color="#000000" fill="#00BD9D"/>
	</g>
</g><g>
	<g>
		<rect x="396" y="230" width="40" height="40" data-original="#000000" class="active-path" data-old_color="#000000" fill="#00BD9D"/>
	</g>
</g><g>
	<g>
		<rect x="76" y="310" width="40" height="40" data-original="#000000" class="active-path" data-old_color="#000000" fill="#00BD9D"/>
	</g>
</g><g>
	<g>
		<rect x="156" y="310" width="40" height="40" data-original="#000000" class="active-path" data-old_color="#000000" fill="#00BD9D"/>
	</g>
</g><g>
	<g>
		<rect x="236" y="310" width="40" height="40" data-original="#000000" class="active-path" data-old_color="#000000" fill="#00BD9D"/>
	</g>
</g><g>
	<g>
		<rect x="316" y="310" width="40" height="40" data-original="#000000" class="active-path" data-old_color="#000000" fill="#00BD9D"/>
	</g>
</g><g>
	<g>
		<rect x="76" y="390" width="40" height="40" data-original="#000000" class="active-path" data-old_color="#000000" fill="#00BD9D"/>
	</g>
</g><g>
	<g>
		<rect x="156" y="390" width="40" height="40" data-original="#000000" class="active-path" data-old_color="#000000" fill="#00BD9D"/>
	</g>
</g><g>
	<g>
		<rect x="236" y="390" width="40" height="40" data-original="#000000" class="active-path" data-old_color="#000000" fill="#00BD9D"/>
	</g>
</g><g>
	<g>
		<rect x="316" y="390" width="40" height="40" data-original="#000000" class="active-path" data-old_color="#000000" fill="#00BD9D"/>
	</g>
</g><g>
	<g>
		<rect x="396" y="310" width="40" height="40" data-original="#000000" class="active-path" data-old_color="#000000" fill="#00BD9D"/>
	</g>
</g></g> </svg>

<svg xmlns="http://www.w3.org/2000/svg" width="512" height="512" viewBox="0 0 512 512"><path d="M452,40H428V0H388V40H124V0H84V40H60A60.068,60.068,0,0,0,0,100V452a60.068,60.068,0,0,0,60,60H452a60.068,60.068,0,0,0,60-60V100A60.068,60.068,0,0,0,452,40Zm20,412a20.023,20.023,0,0,1-20,20H60a20.023,20.023,0,0,1-20-20V188H472Zm0-304H40V100A20.023,20.023,0,0,1,60,80H84v40h40V80H388v40h40V80h24a20.023,20.023,0,0,1,20,20Z" fill="#fff"/><rect width="40" height="40" transform="translate(76 230)" fill="#fff"/><rect width="40" height="40" transform="translate(156 230)" fill="#fff"/><rect width="40" height="40" transform="translate(236 230)" fill="#fff"/><rect width="40" height="40" transform="translate(316 230)" fill="#fff"/><rect width="40" height="40" transform="translate(396 230)" fill="#fff"/><rect width="40" height="40" transform="translate(76 310)" fill="#fff"/><rect width="40" height="40" transform="translate(156 310)" fill="#fff"/><rect width="40" height="40" transform="translate(236 310)" fill="#fff"/><rect width="40" height="40" transform="translate(316 310)" fill="#fff"/><rect width="40" height="40" transform="translate(76 390)" fill="#fff"/><rect width="40" height="40" transform="translate(156 390)" fill="#fff"/><rect width="40" height="40" transform="translate(236 390)" fill="#fff"/><rect width="40" height="40" transform="translate(316 390)" fill="#fff"/><rect width="40" height="40" transform="translate(396 310)" fill="#fff"/></svg>
